X: 6
T: Halfe Hannekin
C: Traditional
O: England
R: jig
M: 6/8
L: 1/8
K: G
B>cd d2c|B>cB A2G|B>cd d>cB|A>GF G3|
B>cd d2c|B>cB A2G|B>cd d>cB|A>GF G3||
B3 c3|B3 A2G|B>AB c2B|A>GF G3|
B>AB c>Bc|B>AB A2G|B>AB c2B|A>GF G3||

